X:1
T:Title
%%score { 1 | 2 }
L:1/8
M:3/4
K:F
V:1 treble nm="Grand Piano"
V:2 bass 
V:1
 z2 z2[Q:1/4=100] F>G | A2 A2 G>A | B2 B2 A>[GB] | [Ac]3 [Bd] [Ac][FA] |[M:2/4] [EG]4 | %5
[M:1/4] F>G |[M:3/4] A2 A2 G>A | B2 B2 A[CGB] | [Ac][FA] [A,F]2 [B,EG]2 |[M:2/4] [A,F]4 | %10
[M:1/4] [G,CE]>[G,DF] |[M:3/4] [EG]3 [EG] [Ec][Fd] | [Ge]2 [Ge]2 [Ec]>[Ec] | d3 d A=B | %14
[M:2/4] [Ec]4 |[M:1/4] [CE]>[DF] |[M:3/4] [EG]3 [EG] [Ec][Fd] | [Ge]2 [Ge]2 [Ec][Ec] | %18
 dA c2 [D=B]2 |[M:2/4] [Ec]4 |[M:1/4] [Ac]>[GB] |[M:3/4] A2 A2 G>A | B2 B2 A>[GB] | %23
 [Ac]3 [Bd] [Ac][FA] |[M:2/4] [EG]4 |[M:1/4] F>G |[M:3/4] A2 A2 G>A | B2 B2 A[CGB] | %28
 [Ac][FA] [A,F]2 [B,EG]2 |[M:6/4] .[A,F]6 z6 |] %30
V:2
 z2 z2 [F,A,]>[F,B,F] | [F,CF]2 [F,CF]2 [B,CE]>[K:treble][A,CF] | %2
 [G,CE]2[K:bass] [G,CE]2 [F,CF]>[F,C] | [F,F]3 [F,F] [F,F][F,C] |[M:2/4] [C,C]4 | %5
[M:1/4] [F,A,]>[K:treble][F,B,F] |[M:3/4] [F,CF]2 [F,CF]2 [B,CE]>[A,CF] | %7
 [G,CE]2 [G,CE]2 [F,CF]F, | F,F, D,2 C,2 |[M:2/4] F,4 |[M:1/4] C,>C, | %11
[M:3/4] [C,C]3 [C,C] [C,C][C,C] | [C,C]2 [C,C]2 [C,G,]>[C,G,] | [F,A,F]3 [F,A,F] [G,F][G,F] | %14
[M:2/4][K:bass] [C,G,]4 |[M:1/4] [C,G,]>[C,G,] |[M:3/4] [C,C]3 [C,C] [C,C][C,C] | %17
 [C,C]2 [C,C]2 [C,G,][C,G,] | [F,A,F][F,A,F] [G,E]2 [G,,G,]2 |[M:2/4] [C,G,]4 | %20
[M:1/4] [F,C]>[F,C] |[M:3/4][K:treble] [F,CF]2 [F,CF]2 [B,CE]>[A,CF] | %22
 [G,CE]2[K:bass] [G,CE]2 [F,CF]>[F,C] | [F,F]3 [F,F] [F,F][F,C] |[M:2/4] [C,C]4 | %25
[M:1/4] [F,A,]>[K:treble][F,B,F] |[M:3/4] [F,CF]2 [F,CF]2 [B,CE]>[A,CF] | %27
 [G,CE]2 [G,CE]2 [F,CF]F, | F,F, D,2 C,2 |[M:6/4] .F,6 z6 |] %30

